!!!COM:	Obrecht, Jacob
!!!CDT:	1458-1505/07/
!!!OPR:	Missa Ave regina celorum
!!!ONM:	4
!!!OTL:	Sanctus
!!!AGN:	Mass; Sanctus
!!!SCT:	Obr1002d
!!!SCA:	Obr1002d
!!!voices:	4
**kern	**kern	**kern	**kern
*staff4	*staff3	*staff2	*staff1
*Ivox	*Ivox	*Ivox	*Ivox
*I"Bassus	*I"Tenor	*I"Altus	*I"Discantus
*I'B	*I'T	*I'A	*I'D
*>[A,B,C,D,C]	*>[A,B,C,D,C]	*>[A,B,C,D,C]	*>[A,B,C,D,C]
*>A	*>A	*>A	*>A
*clefF4	*clefGv2	*clefGv2	*clefG2
*k[b-]	*k[b-]	*k[b-]	*k[b-]
*M3/1	*M3/1	*M3/1	*M3/1
*met(O)	*met(O)	*met(O)	*met(O)
!!section: Sanctus
!!!OMD: Sanctus
=1-	=1-	=1-	=1-
0F	0c	1c	0f
.	.	1A	.
2F\	1A	1F	2f/
2D\	.	.	[2a/
=2	=2	=2	=2
1D	1F	1r	4a/]
.	.	.	4g/
.	.	.	2f/
2.C/	1G	2r	2.e/
.	.	1G	.
8BB-/L	.	.	4f/
8AA/J	.	.	.
2GG/	2B-\	.	2g/
2FF/	2A/	2A/	2c/
=3	=3	=3	=3
2BB-/	1F	2B-\	2.d/
1D	.	2A/	.
.	.	.	4e/
.	2r	2F/	2f/
2E\	2G/	1r	2e/
4F\	2A/	.	4c/
4A\	.	.	2f/
2G\	2B-\	2G/	.
.	.	.	4e/
=4	=4	=4	=4
0.F;	0.c;	2.A/	0.f;
.	.	4B-\	.
.	.	1c	.
.	.	1A;	.
=5	=5	=5	=5
1F	1f	0.r	1.a
2D\	1f	.	.
2BB-/	.	.	1b-
1C	1e	.	.
.	.	.	2a/
=6	=6	=6	=6
1BB-	1d	1.f	1b-
2FF/	2.c\	.	2a/
1.C	.	2e\	2g/
.	4B-\	.	.
.	2A/	1e	1cc
.	2G/	.	.
=7	=7	=7	=7
2D\	2F/	2d\	2b-\
2C/	1c	2r	2.a/
1F	.	1r	.
.	.	.	4g/
.	2A/	.	1f
1C	1G	2.c\	.
.	.	.	2e/
.	.	4B-\	.
=8	=8	=8	=8
0FF	0.F	2.A/	2f/
.	.	.	2.cc\
.	.	4G/	.
.	.	2F/	.
.	.	.	4b-\
.	.	1c	2.a/
2r	.	.	.
.	.	.	4g/
2FF/	.	2A/	[2f/
=9	=9	=9	=9
1C	2r	1G	2f/]
.	1c	.	2e/
4FF/	.	1F	1f
4GG/	.	.	.
4AA/	2A/	.	.
4BB-/	.	.	.
1C	1G	2r	2.e/
.	.	[2c\	.
.	.	.	8f/L
.	.	.	8g/J
=10	=10	=10	=10
1FF	1F	2c\]	2a/
.	.	2A/	1f
1r	1B-	1G	.
.	.	.	2e/
1FF	1A	1F	1f
=11	=11	=11	=11
2GG/	2G/	2c\	2r
2FF/	1c	2A/	2f/
1GG	.	1G	2e/
.	2B-\	.	2d/
1AA	1c	2r	4c/
.	.	.	2e/
.	.	2c\	.
.	.	.	8d/L
.	.	.	8c/J
=12	=12	=12	=12
2r	2G/	2B-\	2d/
2AA/	2A/	2c\	2c/
2.C/	2G/	2r	2.e/
.	1c	2G/	.
4BB-/	.	.	4d/
4AA/	.	2A/	4e/
4FF/	.	.	4f/
2GG/	2B-\	2G/	2d/
=13	=13	=13	=13
4AA/	1c	2r	2r
4FF/	.	.	.
1F	.	1c	2c/
.	1F	.	2.f/
2BB-/	.	2B-\	.
.	.	.	8e/L
.	.	.	8d/J
2F\	2A/	1c	4c/
.	.	.	2f/
2C/	2G/	.	.
.	.	.	4e/
=14	=14	=14	=14
2.D\	1F	2r	2.f/
.	.	2F/	.
8C/L	.	.	8e/L
8BB-/J	.	.	8d/J
4AA/	2r	2A/	4c/
4FF/	.	.	2f/
2C/	2c\	2G/	.
.	.	.	4e/
2FF/	2A/	1F	2f/
2BB-/	2B-\	.	2d/
=15	=15	=15	=15
2AA/	0c	1r	2e/
2FF/	.	.	2.f/
2.F\	.	2r	.
.	.	.	2a/
.	.	2c\	.
4E\	.	.	2g/
4F\	2r	2A/	.
4A\	.	.	2f/
2G\	2G/	2B-\	.
.	.	.	4e/
=16	=16	=16	=16
2F\	2A/	2c\	4f/
.	.	.	4c/
2r	2B-\	2G/	2d/
1.F	1c	2.A/	4c/
.	.	.	2A/
.	.	4B-\	2a/
.	2r	2c\	.
.	.	.	8g/L
.	.	.	8f/J
2C/	2G/	[2c\	2e/
=17	=17	=17	=17
2F\	2A/	4c\]	4c/
.	.	4A/	2f/
2G\	2B-\	2G/	.
.	.	.	4e/
4A\	2.c\	4F/	2f/
2F\	.	2A/	.
.	.	.	4r
4G\	4B-\	4G/	2b-\
2E\	2G/	2B-\	.
.	.	.	4g/
[2F\	2F/	2A/	[2a/
=18	=18	=18	=18
4F\]	1A	2r	4a/]
4D\	.	.	2f/
2F\	.	2.c\	.
.	.	.	8e/L
.	.	.	8d/J
2.C/	1G	.	2.e/
.	.	4B-\	.
.	.	2G/	.
4BB-/	.	.	4d/
4AA/	2r	1r	4c/
4FF/	.	.	2f/
2GG/	2B-\	.	.
.	.	.	4e/
=19	=19	=19	=19
1FF	2A/	2r	2f/
.	1c	2F/	2a/
2C/	.	2E/	2g/
2D\	2A/	2F/	1f
2BB-/	1G	1G	.
2C/	.	.	2e/
=20	=20	=20	=20
2D\	2r	1F	2f/
2BB-/	2F/	.	2b-\
2C/	2E/	1r	4g/
.	.	.	2a/
2D\	2F/	.	.
.	.	.	8g/L
.	.	.	8f/J
1C	1G	[1cl	4e/
.	.	.	2f/
.	.	.	4e/
=21	=21	=21	=21
0.FFl	0.Fl	0.c]	0.fl
!!LO:LB:i:g=z
=22||	=22||	=22||	=22||
*>B	*>B	*>B	*>B
*clefF4	*clefGv2	*clefGv2	*clefG2
*k[b-]	*k[b-]	*k[b-]	*k[b-]
*M2/1	*M2/1	*M2/1	*M2/1
*met(C|)	*met(C|)	*met(C|)	*met(C|)
!!section: Pleni sunt celi
!!!OMD: Pleni sunt celi
2.FF/	0r	0r	0r
4GG/	.	.	.
2AA/	.	.	.
[2BB-/	.	.	.
=23	=23	=23	=23
2BB-/]	0r	1F	0r
4AA/	.	.	.
4GG/	.	.	.
2FF/	.	2.F/	.
[2F\	.	.	.
.	.	4G/	.
=24	=24	=24	=24
2F\]	0r	4A/	0r
.	.	4B-\	.
2E\	.	2c\	.
2D\	.	2B-\	.
[2F\	.	[2d\	.
=25	=25	=25	=25
4F\]	0r	4d\]	1f
4E\	.	4c\	.
4D\	.	1c	.
4C/	.	.	.
1D	.	.	2.f/
.	.	2Bni\	.
.	.	.	4g/
=26	=26	=26	=26
1C	0r	1c	4a/
.	.	.	4b-\
.	.	.	2cc\
1r	.	2r	2b-\
.	.	[2f\	[2dd\
=27	=27	=27	=27
0r	0r	4f\]	4dd\]
.	.	4c\	4cc\
.	.	2e\	1cc
.	.	1d	.
.	.	.	2b-\
=28	=28	=28	=28
2.FF/	0r	1c	2cc\
.	.	.	1a
4GG/	.	.	.
4AA/	.	2f\	.
4BB-/	.	.	.
2C/	.	2e\	[2g/
=29	=29	=29	=29
2BB-/	0r	2d\	4g/]
.	.	.	4f/
2.D\	.	2A/	2f/
.	.	2B-\	2d/
4C/	.	.	.
[2C/	.	2c\	2e/
=30	=30	=30	=30
2C/]	0r	2A/	2c/
2BB-/	.	2B-\	1f
1C	.	1G	.
.	.	.	2e/
=31	=31	=31	=31
2FF/	0r	1F	0f
2.F\	.	.	.
.	.	2r	.
4E\	.	.	.
2D\	.	[2f\	.
=32	=32	=32	=32
2C/	0r	4f\]	0r
.	.	4e\	.
2D\	.	2d\	.
2AA/	.	2c\	.
[2F\	.	2d\	.
=33	=33	=33	=33
2F\]	0r	1A	0r
4E\	.	.	.
4D\	.	.	.
4E\	.	2r	.
4D\	.	.	.
4C/	.	[2c\	.
4BB-/	.	.	.
=34	=34	=34	=34
2AA/	0r	4c\]	0r
.	.	4B-\	.
2.F\	.	4A/	.
.	.	4G/	.
.	.	2A/	.
4E\	.	.	.
2D\	.	[2B-\	.
=35	=35	=35	=35
2AA/	0r	4B-\]	0r
.	.	4A/	.
2C/	.	1A	.
1BB-	.	.	.
.	.	2G/	.
=36	=36	=36	=36
0AA	0r	1A	2r
.	.	.	2.cc\
.	.	2r	.
.	.	.	4b-\
.	.	[2f\	4a/
.	.	.	4g/
=37	=37	=37	=37
0r	0r	4f\]	2a/
.	.	4e\	.
.	.	2d\	2.b-\
.	.	2A/	.
.	.	.	4a/
.	.	2c\	[2a/
=38	=38	=38	=38
1r	0r	1B-	2a/]
.	.	.	2g/
2r	.	2.A/	1a
[2F\	.	.	.
.	.	4B-\	.
=39	=39	=39	=39
4F\]	0r	2c\	2r
4E\	.	.	.
2D\	.	2d\	1a
2AA/	.	2f\	.
2C/	.	[2e\	[2g/
=40	=40	=40	=40
1BB-	0r	4e\]	4g/]
.	.	4d\	4f/
.	.	1d	2d/
2AA/	.	.	1e
2A\	.	2c#i\	.
=41	=41	=41	=41
2F\	0r	2d\	1d
2.G\	.	2.B-\	.
.	.	.	2r
4F\	.	4A/	.
2D\	.	2F/	[2a/
=42	=42	=42	=42
1E	0r	1G	4a/]
.	.	.	4g/
.	.	.	1g
1D	.	1A	.
.	.	.	2f#i/
=43	=43	=43	=43
2r	0r	2G/	1g
2G\	.	2.B-\	.
2E\	.	.	2g/
.	.	4c\	.
[2F\	.	2A/	[2a/
=44	=44	=44	=44
4F\]	0r	2.c\	4a/]
4E\	.	.	4g/
2C/	.	.	2.g/
.	.	4B-\	.
1D	.	2A/	.
.	.	.	4f/
.	.	2F/	[2f/
=45	=45	=45	=45
2r	0r	1G	2f/]
2C/	.	.	2e/
2AA/	.	2.F/	1f
[2BB-/	.	.	.
.	.	4E/	.
=46	=46	=46	=46
4BB-/]	0r	4D/	0r
4AA/	.	4C/	.
2FF/	.	1F	.
1GG	.	.	.
.	.	2E/	.
=47	=47	=47	=47
1FF	0r	2F/	2r
.	.	1f	2cc\
1r	.	.	2a/
.	.	[2g\	[2b-\
=48	=48	=48	=48
0r	0r	4g\]	4b-\]
.	.	4f\	4a/
.	.	1f	2f/
.	.	.	1g
.	.	2e\	.
=49	=49	=49	=49
0r	0r	2f\	2.f/
.	.	2.F/	.
.	.	.	4e/
.	.	.	4d/
.	.	4G/	4c/
.	.	2A/	[2f/
=50	=50	=50	=50
0r	0r	1G	2f/]
.	.	.	2e/
.	.	4F/	1f
.	.	4G/	.
.	.	4A/	.
.	.	4B-\	.
=51	=51	=51	=51
0r	0r	2c\	2e/
.	.	2.d\	2.f/
.	.	4c\	4e/
.	.	[2c\	2c/
=52	=52	=52	=52
1r	0r	2c\]	1d
.	.	2B-\	.
2r	.	2A/	[1c
2F\	.	4G/	.
.	.	4F/	.
=53	=53	=53	=53
2E\	0r	2G/	0c]
2.F\	.	2.A/	.
4E\	.	4G/	.
2C/	.	2G/	.
=54	=54	=54	=54
1D	0r	2F/	1B-
.	.	2f\	.
1C	.	2.e\	1c
.	.	8d\L	.
.	.	8c\J	.
=55	=55	=55	=55
2BB-/	0r	2d\	2r
2C/	.	2.e\	1g
1D	.	.	.
.	.	4d\	.
.	.	[2d\	2f/
=56	=56	=56	=56
1AA	0r	2d\]	1e
.	.	2c#i\	.
2BB-/	.	2d\	2.d/
[2D\	.	[2f\	.
.	.	.	4e/
=57	=57	=57	=57
4D\]	0r	4f\]	4f/
4E\	.	4e\	4g/
2F\	.	4d\	2a/
.	.	4c\	.
1C	.	2g\	2g/
.	.	2c\	[2cc\
=58	=58	=58	=58
1G	0r	1d	2cc\]
.	.	.	2bni\
2.C/	.	1c	2.cc\
4D\	.	.	4b-i\
=59	=59	=59	=59
2E\	0r	0r	2g/
1F	.	.	1a
4E\	.	.	4g/
4D\	.	.	4f/
=60	=60	=60	=60
2C/	0r	2r	2e/
2BB-/	.	2.B-\	2d/
1GG	.	.	2.b-\
.	.	4A/	.
.	.	4G/	.
.	.	4F/	4a/
=61	=61	=61	=61
2r	0r	2c\	2g/
2D\	.	2F/	1f
2BB-/	.	1G	.
2C/	.	.	2e/
=62	=62	=62	=62
2AA/	0r	[0Fl	[0fl
2.BB-/	.	.	.
4C/	.	.	.
[2D\	.	.	.
=63	=63	=63	=63
4D\]	0r	0F_	0f_
4C/	.	.	.
4BB-/	.	.	.
4AA/	.	.	.
2BB-/	.	.	.
4AA/	.	.	.
4GG/	.	.	.
=64	=64	=64	=64
0FFl	0r	0F]	0f]
!!LO:LB:i:g=z
=65||	=65||	=65||	=65||
*>C	*>C	*>C	*>C
*clefF4	*clefGv2	*clefGv2	*clefG2
*k[b-]	*k[b-]	*k[b-]	*k[b-]
*M2/1	*M2/1	*M2/1	*M2/1
*met(C|)	*met(C)	*met(C)	*met(C|)
!!section: Osanna
!!!OMD: Osanna
*	*rscale:1/2	*rscale:1/2	*
[0F	[0cj	0rjj	[0a
=66	=66-	=66-	=66
0F]	0c]	0rj	0a]
=67	=67	=67	=67
0F	0f	[0cj	0a
=68	=68-	=68-	=68
0C	1e	0c]	1g
.	1c	.	1e
=69	=69	=69	=69
0D	0B-	0f	1d
.	.	.	2r
.	.	.	2d/
=70	=70-	=70-	=70
0C	0c	1e	2e/
.	.	.	2c/
.	.	1c	2.e/
.	.	.	4f/
=71	=71	=71	=71
0r	1r	0B-	2g/
.	.	.	4f/
.	.	.	4e/
.	1G	.	1d
=72	=72-	=72-	=72
1.F	1A	0c	1c
.	[1c	.	2r
4E\	.	.	2c/
4D\	.	.	.
=73	=73	=73	=73
2.C/	1c]	1r	2.e/
4D\	.	.	4f/
1E	1B-	1G	1g
=74	=74-	=74-	=74
1.F	1A	1A	2f/
.	.	.	1a
.	1F	[1c	.
4E\	.	.	4g/
4D\	.	.	4f/
=75	=75	=75	=75
1C	1G	0c]	1e
1AA	1A	.	1f
=76	=76-	=76-	=76
0GG	0B-	1B-	0g
.	.	1G	.
=77	=77	=77	=77
0D	0A	1A	1f
.	.	1F	4f/
.	.	.	4g/
.	.	.	4a/
.	.	.	4b-\
=78	=78-	=78-	=78
1E	0r	1G	1cc
1F	.	1A	[1a
=79	=79	=79	=79
0G	[0dj	0B-	1a]
.	.	.	1g
=80	=80-	=80-	=80
1.D	0d]	0A	0a
4C/	.	.	.
4BB-/	.	.	.
=81	=81	=81	=81
1AA	1c	1r	1a
1D	1A	[1dj	2f/
.	.	.	[2a/
=82	=82-	=82-	=82
0GG	0B-	0d]	2a/]
.	.	.	4g/
.	.	.	4f/
.	.	.	1g
=83	=83	=83	=83
1r	0A	1c	2r
.	.	.	2.a/
1D	.	1A	.
.	.	.	4g/
.	.	.	4f/
.	.	.	4e/
=84	=84-	=84-	=84
1G	1r	0B-	2d/
.	.	.	2.g/
1E	1G	.	.
.	.	.	4f/
.	.	.	2e/
=85	=85	=85	=85
1F	0F	0A	2d/
.	.	.	2c/
1D	.	.	1d
=86	=86-	=86-	=86
1E	1B-	1G	1r
1F	1A	1F	1f
=87	=87	=87	=87
1BB-	0F	1B-	1d
1FF	.	1A	[1f
=88	=88-	=88-	=88
0r	1A	[0F	2f/]
.	.	.	2g/
.	[1c	.	2a/
.	.	.	[2a/
=89	=89	=89	=89
1r	1c]	0F_	4a/]
.	.	.	4g/
.	.	.	4f/
.	.	.	4e/
1BB-	1B-	.	2d/
.	.	.	[2f/
=90	=90-	=90-	=90
1D	0A	0F]	2f/]
.	.	.	4e/
.	.	.	4d/
1F	.	.	2c/
.	.	.	2d/
=91	=91	=91	=91
0C	0G	0rjj	2e/
.	.	.	1f
.	.	.	2e/
=92	=92-	=92-	=92
1.FF	[0F	1rj	1.f
.	.	[1c	.
2GG/	.	.	4e/
.	.	.	4d/
=93	=93	=93	=93
1AA	0F]	1c]	1c
1BB-	.	1B-	1d
=94	=94-	=94-	=94
0FF	1r	0A	1c
.	[1c	.	[1f
=95	=95	=95	=95
0r	1c]	0G	1f]
.	1B-	.	1e
=96	=96-	=96-	=96
0FF	0c	[0F	0f
=97	=97	=97	=97
0BB-	0d	0F_	1.f
.	.	.	2g/
=98	=98-	=98-	=98
1FF	[0c	0F]	0a
[1F	.	.	.
=99	=99	=99	=99
1F]	0c]	1r	1f
1E	.	[1cj	1g
=100	=100-	=100-	=100
0D	0f	1c]	1.a
.	.	1B-	.
.	.	.	4g/
.	.	.	4f/
=101	=101	=101	=101
1.C	[0ej	[0cj	2a/
.	.	.	1g
2D\	.	.	2f/
=102	=102-	=102-	=102
1E	1e]	0c]	1g
1F	[1c	.	1a
=103	=103	=103	=103
2E\	1c]	1r	1g
1C	.	.	.
.	1f	1d	1d
2BB-/	.	.	.
=104	=104-	=104-	=104
1C	1e	1c	0r
1D	[1d	[1f	.
=105	=105	=105	=105
1BB-	2d\]	2f\]	1r
.	2c\	2e\	.
1C	[1cj	[1ej	[1g
=106	=106-	=106-	=106
0GG	1c]	2e\]	0g_
.	.	2d\	.
.	1B-	[1d	.
=107	=107	=107	=107
1r	0c	2d\]	1g]
.	.	2c\	.
1C	.	[1cj	1e
=108	=108-	=108-	=108
0D	0F	1c]	0f
.	.	1Bni	.
=109	=109	=109	=109
0C	1A	0c	1e
.	1G	.	2r
.	.	.	2e/
=110	=110-	=110-	=110
1.D	0F	1r	1.f
.	.	1F	.
4C/	.	.	4e/
4BB-/	.	.	4d/
=111	=111	=111	=111
2AA/	1r	1A	2c/
2FF/	.	.	1f
1C	1c	1G	.
.	.	.	2e/
=112	=112-	=112-	=112
1D	1A	0F	1f
1BB-	1B-	.	1d
=113	=113	=113	=113
2AA/	[0cj	0rjj	1e
2.C/	.	.	.
.	.	.	2c/
4BB-/	.	.	.
4AA/	.	.	[2cc\
4GG/	.	.	.
=114	=114-	=114-	=114
2FF/	0c]	1rj	4cc\]
.	.	.	4b-\
1F	.	.	1a
.	.	1c	.
2E\	.	.	2g/
=115	=115	=115	=115
1F	1r	1A	1a
1r	1G	1B-	2r
.	.	.	2d/
=116	=116-	=116-	=116
0r	1A	1c	2f/
.	.	.	2e/
.	1B-	1G	1d
=117	=117	=117	=117
[0F	0c	1.A	2c/
.	.	.	2.cc\
.	.	.	4b-\
.	.	2B-\	[2a/
=118	=118-	=118-	=118
1F]	1r	1c	2a/]
.	.	.	4g/
.	.	.	4f/
1C	1G	[1c	1e
=119	=119	=119	=119
1F	1A	2c\]	2r
.	.	2A/	1f
1G	1B-	1G	.
.	.	.	2e/
=120	=120-	=120-	=120
2A\	1.c	2F/	2.f/
1F	.	1A	.
.	.	.	4g/
.	.	.	2a/
2G\	2B-\	2G/	[2b-\
=121	=121	=121	=121
1E-	1G	1B-	2b-\]
.	.	.	2g/
[1F	1F	1A	2a/
.	.	.	[2cc\
=122	=122-	=122-	=122
0F]	0A	1r	4cc\]
.	.	.	4b-\
.	.	.	4a/
.	.	.	4g/
.	.	[1c	1f
=123	=123	=123	=123
1C	0G	2c\]	2g/
.	.	2B-\	2.e/
2.C/	.	1G	.
.	.	.	4d/
.	.	.	4e/
4D\	.	.	4f/
=124	=124-	=124-	=124
2E\	1r	0r	2g/
1F	.	.	1a
.	1B-	.	.
2E\	.	.	2g/
=125	=125	=125	=125
1F	1A	1r	2a/
.	.	.	2.cc\
1FF	[1cj	1F	.
.	.	.	4b-\
.	.	.	2a/
=126	=126-	=126-	=126
1C	1c]	1E	1g
1D	1A	1F	[1f
=127	=127	=127	=127
1BB-	0G	0G	1f]
1C	.	.	1e
=128	=128-	=128-	=128
2D\	1r	0F	2f/
2.F\	.	.	4e/
.	.	.	4d/
.	1F	.	2c/
4E\	.	.	.
2D\	.	.	2d/
=129	=129	=129	=129
2C/	1E	0r	2e/
2E\	.	.	2c/
1D	1F	.	2d/
.	.	.	[2f/
=130	=130-	=130-	=130
0C	0G	[0cl	2f/]
.	.	.	4e/
.	.	.	4d/
.	.	.	1e
=131	=131	=131	=131
0FFl	0Fl	0c]	0fl
*	*rscale:1	*rscale:1	*
!!LO:LB:i:g=z
!!LO:TX:rj:i:t=fine
=132||	=132||	=132||	=132||
*>D	*>D	*>D	*>D
*clefF4	*clefGv2	*clefGv2	*clefG2
*k[b-]	*k[b-]	*k[b-]	*k[b-]
*M2/1	*M2/1	*M2/1	*M2/1
*met(C|)	*met(C|)	*met(C|)	*met(O)
*	*	*	*rscale:1/2
!!section: Benedictus
!!!OMD: Benedictus
0r	2.c\	0r	[0ccj
.	4d\	.	.
.	2e\	.	.
.	[2f\	.	.
=133	=133	=133	=133-
0r	2f\]	0r	0cc_y
.	4e\	.	.
.	4d\	.	.
.	2e\	.	.
.	2f\	.	.
=134	=134	=134	=134-
0r	2e\	2.c\	0cc]
.	2c\	.	.
.	.	4d\	.
.	2r	2e\	.
.	[2F/	[2f\	.
=135	=135	=135	=135
0r	4F/]	2f\]	0a
.	4G/	.	.
.	4A/	4e\	.
.	4B-\	4d\	.
.	2c\	2e\	.
.	2A/	2f\	.
=136	=136	=136	=136-
0r	2r	1.g	1b-
.	2.G/	.	.
.	.	.	[1ddj
.	4A/	.	.
.	4B-\	4f\	.
.	4c\	4e\	.
=137	=137	=137	=137-
1r	2d\	2f\	1dd]
.	2B-\	2g\	.
[1F	2r	1a	1cc
.	[2A/	.	.
=138	=138	=138	=138
2F\]	4A/]	1f	0a
.	4B-\	.	.
4E\	4c\	.	.
4D\	4d\	.	.
2C/	2e\	2r	.
2F\	2c\	2f\	.
=139	=139	=139	=139-
2C/	2r	2e\	1g
1G	2.B-\	2d\	.
.	.	1g	1b-
.	4c\	.	.
2G\	4d\	.	.
.	4e\	.	.
=140	=140	=140	=140-
2F\	2f\	2r	2a/
2C/	2e\	2c\	2g/
1D	1d	2A/	1f
.	.	2B-\	.
=141	=141	=141	=141
0C;	0G;	0c;	0e;
=142	=142	=142	=142-
0r	1r	2.F/	0a
.	.	4G/	.
.	2.F/	2A/	.
.	.	2B-\	.
.	4G/	.	.
=143	=143	=143	=143-
0r	2A/	2c\	0a
.	2F/	2d\	.
.	2c\	2e\	.
.	2F/	[2f\	.
=144	=144	=144	=144
0r	1c	2f\]	0g
.	.	4e\	.
.	.	4d\	.
.	1c	1e	.
=145	=145	=145	=145-
0r	2.F/	1.f	0f
.	4G/	.	.
.	2A/	.	.
.	2B-\	4e\	.
.	.	4d\	.
=146	=146	=146	=146-
0r	2c\	2e\	1a
.	2d\	1d	.
.	1G	.	1g
.	.	4c\	.
.	.	4B-\	.
=147	=147	=147	=147
2.FF/	1r	1A	1.cc
4GG/	.	.	.
2AA/	2r	1r	.
2BB-/	2D/	.	2b-\
=148	=148	=148	=148-
2C/	2E/	0r	1a
2D\	2F/	.	.
2GG/	2.G/	.	[1gj
[2G\	.	.	.
.	4A/	.	.
=149	=149	=149	=149-
2G\]	2B-\	0r	2g/]
1A	1c	.	2f/
.	.	.	[1f
[2B-\	[2d\	.	.
=150	=150	=150	=150
4B-\]	4d\]	0r	1f]
4A\	4c\	.	.
4G\	4B-\	.	.
4F\	4A/	.	.
1G	1B-	.	1e
=151	=151	=151	=151-
2.F\	1c	2.F/	[0fj
4E\	.	4G/	.
2D\	1d	2A/	.
2BB-/	.	2B-\	.
=152	=152	=152	=152-
1F	2c\	2c\	0f]
.	2.A/	2d\	.
4F\	.	2c\	.
4E\	4G/	.	.
4D\	2A/	[2f\	.
4C/	.	.	.
=153	=153	=153	=153
2BB-/	2B-\	2f\]	0r
2D\	2F/	4e\	.
.	.	4d\	.
1C	1G	1e	.
=154	=154	=154	=154-
1FF	2r	1f	0a
.	2.F/	.	.
1r	.	1F	.
.	4G/	.	.
.	4A/	.	.
.	4B-\	.	.
=155	=155	=155	=155-
0r	2c\	2r	1g
.	2d\	2B-\	.
.	2e\	2A/	1a
.	[2f\	2F/	.
=156	=156	=156	=156
0r	2f\]	1G	0b-
.	4e\	.	.
.	4d\	.	.
.	1e	1G	.
=157	=157	=157	=157-
4FF/	1f	1F	0a
4GG/	.	.	.
4AA/	.	.	.
4BB-/	.	.	.
2C/	2r	2r	.
2D\	2F/	2f\	.
=158	=158	=158	=158-
2E\	2G/	2e\	1r
2F\	2A/	1d	.
2G\	2B-\	.	[1g
[2C/	2c\	[2e\	.
=159	=159	=159	=159
2C/]	1G	4e\]	1g]
.	.	4d\	.
2E\	.	1c	.
1D	1r	.	1f
.	.	2Bni\	.
=160	=160	=160	=160-
0C	2G/	0c	0e
.	2A/	.	.
.	2G/	.	.
.	[2c\	.	.
=161	=161	=161	=161-
0r	2c\]	1G	0d
.	4Bni\	.	.
.	4A/	.	.
.	1Bni	1r	.
=162	=162	=162	=162
1C	1c	2G/	1c
.	.	2A/	.
2.C/	1r	2G/	[1gj
.	.	[2c\	.
4D\	.	.	.
=163	=163	=163	=163-
2.E\	0r	2c\]	1g]
.	.	4Bni\	.
4F\	.	4A/	.
1D	.	1Bni	1f
=164	=164	=164	=164-
0C	2G/	0c	0e
.	2A/	.	.
.	2G/	.	.
.	[2c\	.	.
=165	=165	=165	=165
1F	2c\]	0r	0d
.	4Bni\	.	.
.	4A/	.	.
1G	1Bni	.	.
=166	=166	=166	=166-
1.A	2.c\	2.c\	0c
.	4B-\	4d\	.
.	4A/	2e\	.
.	4G/	.	.
2F\	[2A/	[2f\	.
=167	=167	=167	=167-
2D\	2A/]	2f\]	1r
2F\	4G/	4e\	.
.	4F/	4d\	.
1C	1G	1e	[1cc
=168	=168	=168	=168
1FF	2F/	2f\	1cc]
.	1f	2F/	.
1r	.	1G	1b-
.	2e\	.	.
=169	=169	=169	=169-
2r	1f	2F/	0a
2.FF/	.	2.A/	.
.	1c	.	.
4GG/	.	4B-\	.
4AA/	.	[2c\	.
4BB-/	.	.	.
=170	=170	=170	=170-
4C/	1r	4c\]	1g
4D\	.	4B-\	.
4E\	.	4G/	.
4F\	.	4A/	.
2G\	2r	2B-\	1e
[2A\	[2c\	2A/	.
=171	=171	=171	=171
2A\]	2c\]	2c\	1f
1B-	1d	2B-\	.
.	.	2d\	1g
[2c\	[2e\	[2c\	.
=172	=172	=172	=172-
4c\]	4e\]	4c\]	0e
4B-\	4d\	4d\	.
2A\	2c\	4e\	.
.	.	4f\	.
2G\	2B-\	2g\	.
[2A\	[2c\	2e\	.
=173	=173	=173	=173-
2A\]	2c\]	1f	1r
4G\	4B-\	.	.
4F\	4A/	.	.
2E\	2G/	2r	1c
[2F\	[2A/	2F/	.
=174	=174	=174	=174
2F\]	2A/]	2A/	1d
4E\	4G/	2B-\	.
4D\	4F/	.	.
1C	2G/	2.c\	1e
.	[2A/	.	.
.	.	4d\	.
=175	=175	=175	=175-
2r	2A/]	2e\	0c
2F\	4G/	2f\	.
.	4F/	.	.
2E\	2G/	2c\	.
2F\	2A/	[2f\	.
=176	=176	=176	=176-
1BB-	1B-	2f\]	1r
.	.	4e\	.
.	.	4d\	.
1C	1G	1e	1g
=177	=177	=177	=177
1FF	1F	1f	1a
1r	1G	1d	1b-
=178	=178	=178	=178-
[0F	1A	1c	0cc
.	2r	4c\	.
.	.	4B-\	.
.	[2A/	4A/	.
.	.	4G/	.
=179	=179	=179	=179-
1F]	2A/]	2F/	1a
.	1c	1f	.
1C	.	.	[1g
.	4B-\	4e\	.
.	4A/	4d\	.
=180	=180	=180	=180
2r	1G	1e	1g]
2C/	.	.	.
2F\	1F	2.f\	[1aj
2D\	.	.	.
.	.	4e\	.
=181	=181	=181	=181-
1F	1r	2d\	1a]
.	.	1c	.
1D	2.F/	.	1f
.	.	2B-\	.
.	4G/	.	.
=182	=182	=182	=182-
1C	4A/	2.c\	1e
.	4B-\	.	.
.	2c\	.	.
.	.	4B-\	.
1r	2B-\	2G/	[1g
.	[2e-\	[2c\	.
=183	=183	=183	=183
1r	2e-\]	4c\]	2g/]
.	.	4G/	.
.	2d\	2B-\	2f/
2r	2c\	2c\	2e/
2GG/	2B-\	2G/	2d/
=184	=184	=184	=184-
2AA/	2A/	2r	0c
2.C/	2.G/	2G/	.
.	.	1A	.
4BB-/	4F/	.	.
2AA/	[2F/	.	.
=185	=185	=185	=185-
1GG	2F/]	2B-\	1r
.	2E/	2G/	.
2FF/	1F	1A	1f
2F\	.	.	.
=186	=186	=186	=186
2E\	2r	2G/	1g
2C/	2c\	2.g\	.
1G	2d\	.	1b-
.	.	4f\	.
.	2B-\	[2d\	.
=187	=187	=187	=187-
1D	2.f\	4d\]	0a
.	.	4e\	.
.	.	2.f\	.
.	4e\	.	.
1F	4d\	.	.
.	4c\	4e\	.
.	[2f\	[2c\	.
=188	=188	=188	=188-
1C	2f\]	4c\]	1g
.	.	4B-\	.
.	2e\	2G/	.
2r	2d\	2B-\	[1f
[2FF/	[2c\	[2A/	.
=189	=189	=189	=189
4FF/]	2c\]	4A/]	1f]
4GG/	.	4B-\	.
4AA/	4B-\	4c\	.
4BB-/	4A/	4d\	.
1C	1G	1c	1e
=190	=190	=190	=190-
2.FF/	[0Fl	2.A/	[0fl
4GG/	.	4B-\	.
2AA/	.	2c\	.
[2BB-/	.	2d\	.
=191	=191	=191	=191-
2BB-/]	0F_	0B-	0f_
4AA/	.	.	.
4GG/	.	.	.
2.BB-/	.	.	.
4AA/	.	.	.
=192	=192	=192	=192
0FFl	0F]	0cl	0f]
*	*	*	*rscale:1
!!LO:TX:i:Y=40:rj:t=Osanna ut supra
=||	=||	=||	=||
*-	*-	*-	*-
!!!RDF**kern: l=long note in original notation
!!!RDF**kern: j=tied note group as single notehead
!!!RDF**kern: i=editorial accidental
!!!ENC:	Jesse Rodin 8/27/2013
!!!END:	2013/08/27/
!!!EED:	Jesse Rodin
!!!EEV:	2014/01/03/
!!!ONB:	Translated from MusicXML and edited on 2014/01/03/ by Craig Sapp
!!muse2ps: T^@{OPR}^u^@{ONM}{. }@{OTL}^C^@{COM}^i2I150v85,85,85,150Q8c110
